icons/apitools.svg

<?xml version="1.0" encoding="UTF-8" standalone="no"?>
<svg width="256px" height="256px" viewBox="0 0 256 256" version="1.1" xmlns="http://www.w3.org/2000/svg" xmlns:xlink="http://www.w3.org/1999/xlink" preserveAspectRatio="xMidYMid">
    <g>
        <path d="M177.615629,77.9511799 L177.615629,63.7679637 L78.327358,63.7679637 L78.327358,77.9511799 L64.1430335,77.9511799 L64.1430335,184.323801 L92.5106822,184.323801 L92.5106822,155.957368 L113.787669,155.957368 L113.787669,184.323801 L142.155318,184.323801 L142.155318,155.957368 L163.431304,155.957368 L163.431304,184.323801 L191.798953,184.323801 L191.798953,77.9511799 L177.615629,77.9511799 L177.615629,77.9511799 Z M92.5106822,92.134396 L163.431304,92.134396 L163.431304,127.591936 L92.5106822,127.591936 L92.5106822,92.134396 Z M14.5094006,2.84217094e-14 L241.430585,2.84217094e-14 L241.430585,14.163213 L14.5094006,14.163213 L14.5094006,2.84217094e-14 Z M14.5094006,241.796781 L241.430585,241.796781 L241.430585,256 L14.5094006,256 L14.5094006,241.796781 Z M-7.10542736e-15,14.52827 L14.1443151,14.52827 L14.1443151,241.431724 L-7.10542736e-15,241.431724 L-7.10542736e-15,14.52827 Z M241.795671,14.52827 L256,14.52827 L256,241.431724 L241.795671,241.431724 L241.795671,14.52827 Z" fill="#2CB0AD"></path>
    </g>
</svg>

<svg xmlns="http://www.w3.org/2000/svg" viewBox="0 0 256 256">
  <path fill="#2cb0ad" d="M177.616 77.951V63.768H78.327v14.183H64.143v106.373h28.368v-28.367h21.277v28.367h28.367v-28.367h21.276v28.367H191.8V77.95zM92.51 92.134h70.92v35.458h-70.92zM14.509 0h226.922v14.163H14.509zm0 241.797h226.922V256H14.509zM0 14.528h14.144v226.904H0zm241.796 0H256v226.904h-14.204z"/>
</svg>
